wp-content/themes/parasoft/dist/assets/images/speaker-calnder.svg

<svg xmlns="http://www.w3.org/2000/svg" viewBox="0 0 106.9 98.8" width="106" height="98"><path d="M78.7 70.5c-3.5 0-6.4-2.3-7.2-5.5-2.6-1.2-4.3-3.8-4.3-6.8 0-4.2 3.4-7.5 7.5-7.5 3.5 0 6.4 2.3 7.2 5.5 2.6 1.2 4.3 3.8 4.3 6.8 0 4.1-3.3 7.5-7.5 7.5m24.1-46.3h-2.4v-3.8c0-2.3-1.9-4.1-4.1-4.1h-83c-2.3 0-4.1 1.9-4.1 4.1v66.3c0 2.3 1.9 4.1 4.1 4.1h2.4v3.8c0 2.3 1.9 4.1 4.1 4.1h82.9c2.3 0 4.1-1.9 4.1-4.1V28.4c.1-2.3-1.7-4.2-4-4.2" fill="#e0e2e4"/><path d="M78.9 55.4l-5.4 5.4-3.2-3.2m-3.2.5c0 4.2 3.4 7.5 7.5 7.5 4.2 0 7.5-3.4 7.5-7.5 0-4.2-3.4-7.5-7.5-7.5s-7.5 3.4-7.5 7.5zM.7 21.4h91.2M19.3 67h4.1m29.1 0h4.1m-20.7 0H40m12.5-14.5h4.1m-37.3 0h4.1m12.5 0H40M52.5 38h4.1m12.5 0h4.1m-37.3 0H40M69.1.7v14.5M23.5.7v14.5M9 83.6v4.1c0 2.3 1.9 4.1 4.1 4.1H96c2.3 0 4.1-1.9 4.1-4.1V21.4c0-2.3-1.9-4.1-4.1-4.1h-4.1m-4.2 66.3H4.8c-2.3 0-4.1-1.9-4.1-4.1V13.1C.7 10.8 2.5 9 4.8 9h82.9c2.3 0 4.1 1.9 4.1 4.1v66.3c.1 2.3-1.8 4.2-4.1 4.2z" fill="none" stroke="#12385e" stroke-width="1.382" stroke-linecap="round" stroke-linejoin="round" stroke-miterlimit="10"/><path d="M36.7 34.3h7.8v7.8h-7.8zm16.7 0h7.8v7.8h-7.8zm16.6 0h7.8v7.8H70zM20.5 49.1h7.8v7.8h-7.8zm16.6 0h7.8v7.8h-7.8zm16.6 0h7.8v7.8h-7.8zM20.5 63.4h7.8v7.8h-7.8zm16.6 0h7.8v7.8h-7.8zm16.6 0h7.8v7.8h-7.8z" fill="#fff"/><path d="M33.7 33.3h7.8v7.8h-7.8zm16.7 0h7.8v7.8h-7.8zm16.6 0h7.8v7.8H67zM17.5 48.1h7.8v7.8h-7.8zm16.6 0h7.8v7.8h-7.8zm16.6 0h7.8v7.8h-7.8zM17.5 62.4h7.8v7.8h-7.8zm16.6 0h7.8v7.8h-7.8zm16.6 0h7.8v7.8h-7.8z" fill="#7c878d"/></svg>

<?xml version="1.0" encoding="utf-8"?>
<!-- Generator: Adobe Illustrator 24.1.0, SVG Export Plug-In . SVG Version: 6.00 Build 0)  -->
<svg version="1.1" id="Layer_1" xmlns="http://www.w3.org/2000/svg" xmlns:xlink="http://www.w3.org/1999/xlink" x="0px" y="0px"
	 viewBox="0 0 106.9 98.8" style="enable-background:new 0 0 106.9 98.8;" xml:space="preserve" width="106px" height="98px">
<style type="text/css">
	.st0{fill:#E0E2E4;}
	.st1{fill:none;stroke:#12385E;stroke-width:1.382;stroke-linecap:round;stroke-linejoin:round;stroke-miterlimit:10;}
	.st2{fill:#FFFFFF;}
	.st3{fill:#7C878D;}
</style>
<path class="st0" d="M78.7,70.5c-3.5,0-6.4-2.3-7.2-5.5c-2.6-1.2-4.3-3.8-4.3-6.8c0-4.2,3.4-7.5,7.5-7.5c3.5,0,6.4,2.3,7.2,5.5
	c2.6,1.2,4.3,3.8,4.3,6.8C86.2,67.1,82.9,70.5,78.7,70.5 M102.8,24.2h-2.4v-3.8c0-2.3-1.9-4.1-4.1-4.1H13.3c-2.3,0-4.1,1.9-4.1,4.1
	v66.3c0,2.3,1.9,4.1,4.1,4.1h2.4v3.8c0,2.3,1.9,4.1,4.1,4.1h82.9c2.3,0,4.1-1.9,4.1-4.1V28.4C106.9,26.1,105.1,24.2,102.8,24.2"/>
<path class="st1" d="M78.9,55.4l-5.4,5.4l-3.2-3.2 M67.1,58.1c0,4.2,3.4,7.5,7.5,7.5c4.2,0,7.5-3.4,7.5-7.5c0-4.2-3.4-7.5-7.5-7.5
	C70.5,50.6,67.1,54,67.1,58.1z M0.7,21.4h91.2 M19.3,67h4.1 M52.5,67h4.1 M35.9,67h4.1 M52.5,52.5h4.1 M19.3,52.5h4.1 M35.9,52.5
	h4.1 M52.5,38h4.1 M69.1,38h4.1 M35.9,38h4.1 M69.1,0.7v14.5 M23.5,0.7v14.5 M9,83.6v4.1c0,2.3,1.9,4.1,4.1,4.1H96
	c2.3,0,4.1-1.9,4.1-4.1V21.4c0-2.3-1.9-4.1-4.1-4.1h-4.1 M87.7,83.6H4.8c-2.3,0-4.1-1.9-4.1-4.1V13.1C0.7,10.8,2.5,9,4.8,9h82.9
	c2.3,0,4.1,1.9,4.1,4.1v66.3C91.9,81.7,90,83.6,87.7,83.6z"/>
<rect x="36.7" y="34.3" class="st2" width="7.8" height="7.8"/>
<rect x="53.4" y="34.3" class="st2" width="7.8" height="7.8"/>
<rect x="70" y="34.3" class="st2" width="7.8" height="7.8"/>
<rect x="20.5" y="49.1" class="st2" width="7.8" height="7.8"/>
<rect x="37.1" y="49.1" class="st2" width="7.8" height="7.8"/>
<rect x="53.7" y="49.1" class="st2" width="7.8" height="7.8"/>
<rect x="20.5" y="63.4" class="st2" width="7.8" height="7.8"/>
<rect x="37.1" y="63.4" class="st2" width="7.8" height="7.8"/>
<rect x="53.7" y="63.4" class="st2" width="7.8" height="7.8"/>
<rect x="33.7" y="33.3" class="st3" width="7.8" height="7.8"/>
<rect x="50.4" y="33.3" class="st3" width="7.8" height="7.8"/>
<rect x="67" y="33.3" class="st3" width="7.8" height="7.8"/>
<rect x="17.5" y="48.1" class="st3" width="7.8" height="7.8"/>
<rect x="34.1" y="48.1" class="st3" width="7.8" height="7.8"/>
<rect x="50.7" y="48.1" class="st3" width="7.8" height="7.8"/>
<rect x="17.5" y="62.4" class="st3" width="7.8" height="7.8"/>
<rect x="34.1" y="62.4" class="st3" width="7.8" height="7.8"/>
<rect x="50.7" y="62.4" class="st3" width="7.8" height="7.8"/>
</svg>
